X: 28109
T: Mr. Toad's Wild Ride
R: jig
M: 6/8
K: Gmajor
|:"G"GAB BAG|"C"c2c "G"BAG-|"Em"G2AB2A|"Bm"GED"C"E3|
"G"GAB BAG|"C"e2e "G"dBd|"C"ege"Em"d2B|1 "Am"ABG"D"E2D:|2 "Am"ABG "D"E GA||
|:"F"BGG AGG|BGG AGA|"Em"BGG AGG|ABG EDD|
"F"BGG cGG|dGG dBe|1 "G"d2d3 d-|dBG "D"AGA:|2 "G"d2d3 d-|dBG "D"A3||

